apps/www/public/images/logos/publicity/fixed-width/pebblely.svg

<svg width="180" height="60" viewBox="0 0 180 60" fill="none" xmlns="http://www.w3.org/2000/svg">
<path fill-rule="evenodd" clip-rule="evenodd" d="M50.7554 17.6315C48.1141 16.9751 45.6091 18.1285 43.8885 19.8276L41.6977 21.9909C40.863 22.8152 39.8264 23.4057 38.6917 23.7032L30.7781 25.7782C28.4379 26.3919 25.8155 28.0255 25.3604 30.9653C24.9834 33.401 25.4597 36.2326 27.8605 38.4979C30.2044 40.7096 34.1898 42.1933 40.4074 42.4836C50.2303 42.9422 56.9127 41.1906 60.2524 37.6443C61.969 35.8215 62.7372 33.586 62.6028 31.1492C62.4705 28.7523 61.4723 26.2278 59.7943 23.7107C57.2516 19.8967 53.4508 18.3012 50.7554 17.6315ZM45.7702 21.7331C47.0569 20.4625 48.6491 19.8675 50.1096 20.2304C52.4591 20.8143 55.536 22.1512 57.566 25.1962C59.0747 27.4592 59.8311 29.5251 59.9288 31.2967C60.0244 33.0284 59.498 34.5392 58.3028 35.8083C55.819 38.4458 50.2095 40.2603 40.5323 39.8085C34.6086 39.5319 31.3751 38.1323 29.6984 36.5501C28.0784 35.0216 27.7323 33.1486 28.0069 31.375C28.2223 29.9832 29.5577 28.8668 31.4574 28.3687L39.3709 26.2936C40.9595 25.8771 42.4108 25.0504 43.5794 23.8964L45.7702 21.7331Z" fill="#7E7E7E"/>
<path fill-rule="evenodd" clip-rule="evenodd" d="M99.3 20.1192V28.8696C99.6275 28.3472 100.033 27.927 100.515 27.6089C101.178 27.1817 101.929 26.9682 102.769 26.9682C103.652 26.9682 104.47 27.1817 105.221 27.6089C105.972 28.0213 106.576 28.6252 107.033 29.4206C107.489 30.2012 107.718 31.1512 107.718 32.2706C107.718 33.3753 107.489 34.3253 107.033 35.1207C106.576 35.916 105.972 36.5273 105.221 36.9544C104.47 37.3668 103.652 37.573 102.769 37.573C101.929 37.573 101.178 37.3595 100.515 36.9323C100.033 36.6142 99.6275 36.194 99.3 35.6716V37.3521H96.8919V20.1192H99.3ZM99.7198 34.0381C99.44 33.552 99.3 32.9629 99.3 32.2706C99.3 31.5784 99.44 30.9966 99.7198 30.5252C100.014 30.0392 100.383 29.6709 100.825 29.4206C101.266 29.1702 101.716 29.045 102.172 29.045C102.732 29.045 103.24 29.1702 103.697 29.4206C104.168 29.6709 104.544 30.0392 104.823 30.5252C105.103 31.0113 105.243 31.5931 105.243 32.2706C105.243 32.9481 105.103 33.5299 104.823 34.016C104.544 34.5021 104.168 34.8703 103.697 35.1207C103.24 35.3711 102.732 35.4963 102.172 35.4963C101.716 35.4963 101.266 35.3711 100.825 35.1207C100.383 34.8703 100.014 34.5094 99.7198 34.0381Z" fill="#7E7E7E"/>
<path fill-rule="evenodd" clip-rule="evenodd" d="M73.1869 21.8867V37.3521H75.794V31.4973H77.8487C78.9681 31.4973 79.9402 31.3059 80.765 30.9229C81.6045 30.5252 82.2526 29.9655 82.7092 29.2438C83.1658 28.5221 83.3941 27.6678 83.3941 26.681C83.3941 25.6941 83.1658 24.8472 82.7092 24.1402C82.2526 23.4185 81.6045 22.8662 80.765 22.4832C79.9402 22.0855 78.9681 21.8867 77.8487 21.8867H73.1869ZM75.794 24.1844V29.1996H77.8487C78.7471 29.1996 79.4688 28.986 80.0138 28.5589C80.5588 28.1318 80.8313 27.5058 80.8313 26.681C80.8313 25.8561 80.5588 25.2375 80.0138 24.8251C79.4688 24.398 78.7471 24.1844 77.8487 24.1844H75.794Z" fill="#7E7E7E"/>
<path fill-rule="evenodd" clip-rule="evenodd" d="M84.9595 35.0544C85.3866 35.8498 85.9905 36.4684 86.7711 36.9102C87.5665 37.3521 88.4797 37.573 89.5107 37.573C90.6891 37.573 91.698 37.3447 92.5375 36.8882C93.3771 36.4316 94.062 35.7467 94.5922 34.8335L92.5375 33.9939C92.2135 34.5389 91.8085 34.9439 91.3224 35.209C90.8363 35.4742 90.2693 35.6067 89.6212 35.6067C89.0026 35.6067 88.4723 35.4742 88.0305 35.209C87.6033 34.9439 87.2793 34.561 87.0584 34.0602C86.9046 33.7013 86.8043 33.2889 86.7576 32.8229H94.6585C94.6732 32.764 94.6806 32.6683 94.6806 32.5357C94.6953 32.4032 94.7027 32.278 94.7027 32.1601C94.7027 31.0702 94.4965 30.1423 94.0841 29.3764C93.6864 28.5957 93.112 27.9992 92.3608 27.5868C91.6096 27.1744 90.6964 26.9682 89.6212 26.9682C88.546 26.9682 87.6107 27.1891 86.8153 27.631C86.02 28.0581 85.4013 28.6694 84.9595 29.4647C84.5323 30.2601 84.3188 31.1954 84.3188 32.2706C84.3188 33.3311 84.5323 34.259 84.9595 35.0544ZM86.8222 31.188H92.1087C92.0781 30.7538 91.9706 30.3709 91.7864 30.0392C91.5802 29.6415 91.2856 29.3322 90.9026 29.1112C90.5344 28.8903 90.0999 28.7798 89.5991 28.7798C88.9952 28.7798 88.4797 28.9124 88.0526 29.1775C87.6254 29.4426 87.3014 29.8256 87.0805 30.3264C86.9674 30.5827 86.8813 30.8699 86.8222 31.188Z" fill="#7E7E7E"/>
<path fill-rule="evenodd" clip-rule="evenodd" d="M112.31 28.8696V20.1192H109.902V37.3521H112.31V35.6716C112.638 36.194 113.043 36.6142 113.525 36.9323C114.188 37.3595 114.939 37.573 115.779 37.573C116.663 37.573 117.48 37.3668 118.231 36.9544C118.982 36.5273 119.586 35.916 120.043 35.1207C120.5 34.3253 120.728 33.3753 120.728 32.2706C120.728 31.1512 120.5 30.2012 120.043 29.4206C119.586 28.6252 118.982 28.0213 118.231 27.6089C117.48 27.1817 116.663 26.9682 115.779 26.9682C114.939 26.9682 114.188 27.1817 113.525 27.6089C113.043 27.927 112.638 28.3472 112.31 28.8696ZM112.31 32.2706C112.31 32.9629 112.45 33.552 112.73 34.0381C113.025 34.5094 113.393 34.8703 113.835 35.1207C114.276 35.3711 114.726 35.4963 115.182 35.4963C115.742 35.4963 116.25 35.3711 116.707 35.1207C117.178 34.8703 117.554 34.5021 117.834 34.016C118.113 33.5299 118.253 32.9481 118.253 32.2706C118.253 31.5931 118.113 31.0113 117.834 30.5252C117.554 30.0392 117.178 29.6709 116.707 29.4206C116.25 29.1702 115.742 29.045 115.182 29.045C114.726 29.045 114.276 29.1702 113.835 29.4206C113.393 29.6709 113.025 30.0392 112.73 30.5252C112.45 30.9966 112.31 31.5784 112.31 32.2706Z" fill="#7E7E7E"/>
<path d="M123 20.1192H125.387V37.3521H123V20.1192Z" fill="#7E7E7E"/>
<path fill-rule="evenodd" clip-rule="evenodd" d="M128.305 35.0544C128.732 35.8498 129.336 36.4684 130.117 36.9102C130.912 37.3521 131.825 37.573 132.856 37.573C134.035 37.573 135.044 37.3447 135.883 36.8882C136.723 36.4316 137.408 35.7467 137.938 34.8335L135.883 33.9939C135.559 34.5389 135.154 34.9439 134.668 35.209C134.182 35.4742 133.615 35.6067 132.967 35.6067C132.348 35.6067 131.818 35.4742 131.376 35.209C130.949 34.9439 130.625 34.561 130.404 34.0602C130.25 33.7013 130.15 33.2889 130.103 32.8229H138.004C138.019 32.764 138.026 32.6683 138.026 32.5357C138.041 32.4032 138.048 32.278 138.048 32.1601C138.048 31.0702 137.842 30.1423 137.43 29.3764C137.032 28.5957 136.458 27.9992 135.706 27.5868C134.955 27.1744 134.042 26.9682 132.967 26.9682C131.892 26.9682 130.956 27.1891 130.161 27.631C129.365 28.0581 128.747 28.6694 128.305 29.4647C127.878 30.2601 127.664 31.1954 127.664 32.2706C127.664 33.3311 127.878 34.259 128.305 35.0544ZM130.168 31.188H135.454C135.424 30.7538 135.316 30.3709 135.132 30.0392C134.926 29.6415 134.631 29.3322 134.248 29.1112C133.88 28.8903 133.445 28.7798 132.945 28.7798C132.341 28.7798 131.825 28.9124 131.398 29.1775C130.971 29.4426 130.647 29.8256 130.426 30.3264C130.313 30.5827 130.227 30.8699 130.168 31.188Z" fill="#7E7E7E"/>
<path d="M140.326 20.1192H142.712V37.3521H140.326V20.1192Z" fill="#7E7E7E"/>
<path d="M148.127 42.2127L154.755 27.1891H152.192L149.557 33.7946L146.89 27.1891H144.15L148.237 36.1591L145.586 42.2127H148.127Z" fill="#7E7E7E"/>
</svg>

<svg xmlns="http://www.w3.org/2000/svg" width="180" height="60" fill="none" viewBox="0 0 180 60"><path fill="#7e7e7e" fill-rule="evenodd" d="M50.755 17.632c-2.64-.657-5.146.496-6.867 2.196l-2.19 2.163a6.7 6.7 0 0 1-3.006 1.712l-7.914 2.075c-2.34.614-4.962 2.248-5.418 5.187-.377 2.436.1 5.268 2.5 7.533 2.344 2.212 6.33 3.695 12.547 3.986 9.823.458 16.506-1.293 19.845-4.84 1.717-1.822 2.485-4.058 2.35-6.495-.131-2.397-1.13-4.921-2.808-7.438-2.542-3.814-6.343-5.41-9.039-6.08m-4.985 4.101c1.287-1.27 2.88-1.866 4.34-1.503 2.35.584 5.426 1.921 7.456 4.966 1.509 2.263 2.265 4.33 2.363 6.1.095 1.732-.431 3.243-1.626 4.512-2.484 2.638-8.093 4.452-17.77 4-5.924-.276-9.158-1.676-10.835-3.258-1.62-1.528-1.966-3.401-1.691-5.175.215-1.392 1.55-2.508 3.45-3.006l7.914-2.075a9.4 9.4 0 0 0 4.208-2.398zM99.3 20.12v8.75a4.1 4.1 0 0 1 1.215-1.261q.994-.64 2.254-.64 1.325 0 2.452.64 1.127.618 1.812 1.812.684 1.17.685 2.85 0 1.656-.685 2.85-.685 1.192-1.812 1.833a5 5 0 0 1-2.452.619q-1.26 0-2.254-.64a4.1 4.1 0 0 1-1.215-1.261v1.68h-2.408V20.12zm.42 13.918q-.42-.729-.42-1.767 0-1.039.42-1.746.442-.729 1.105-1.104.662-.376 1.347-.376.84 0 1.525.376.707.375 1.126 1.104.42.729.42 1.746t-.42 1.745a2.8 2.8 0 0 1-1.126 1.105 3.1 3.1 0 0 1-1.525.375q-.685 0-1.347-.375a3.1 3.1 0 0 1-1.105-1.083M73.187 21.887v15.465h2.607v-5.855h2.055q1.68 0 2.916-.574 1.26-.596 1.944-1.68.685-1.08.685-2.562 0-1.48-.685-2.54-.685-1.083-1.944-1.658-1.237-.597-2.916-.596zm2.607 2.297V29.2h2.055q1.347 0 2.165-.641.817-.64.817-1.878t-.817-1.856q-.818-.64-2.165-.64zM84.96 35.054a4.6 4.6 0 0 0 1.811 1.856q1.194.663 2.74.663 1.767 0 3.026-.685 1.26-.684 2.055-2.054l-2.055-.84q-.486.818-1.215 1.215t-1.7.398q-.93 0-1.591-.398-.642-.398-.973-1.149a4.2 4.2 0 0 1-.3-1.237h7.9q.023-.089.023-.287.022-.2.022-.376 0-1.635-.619-2.784a4.13 4.13 0 0 0-1.723-1.79q-1.127-.618-2.74-.618-1.612 0-2.806.663a4.54 4.54 0 0 0-1.855 1.834q-.641 1.192-.641 2.806 0 1.59.64 2.783m1.862-3.866h5.287a2.7 2.7 0 0 0-.323-1.149 2.24 2.24 0 0 0-.883-.928q-.553-.33-1.304-.331-.907 0-1.546.397-.642.399-.972 1.15a4 4 0 0 0-.259.861M112.31 28.87v-8.75h-2.408v17.232h2.408v-1.68a4.1 4.1 0 0 0 1.215 1.26q.994.64 2.254.641a5 5 0 0 0 2.452-.619q1.127-.64 1.812-1.833t.685-2.85q0-1.68-.685-2.85-.685-1.194-1.812-1.812a4.9 4.9 0 0 0-2.452-.64q-1.26 0-2.254.64a4.1 4.1 0 0 0-1.215 1.26m0 3.4q0 1.04.42 1.768.442.706 1.105 1.083.662.375 1.347.375a3.1 3.1 0 0 0 1.525-.375q.707-.376 1.127-1.105.419-.73.419-1.745 0-1.017-.419-1.746a2.8 2.8 0 0 0-1.127-1.104 3.1 3.1 0 0 0-1.525-.376q-.685 0-1.347.376-.663.375-1.105 1.104-.42.707-.42 1.746" clip-rule="evenodd"/><path fill="#7e7e7e" d="M123 20.12h2.387v17.232H123z"/><path fill="#7e7e7e" fill-rule="evenodd" d="M128.305 35.054a4.58 4.58 0 0 0 1.812 1.856q1.192.663 2.739.663 1.769 0 3.027-.685 1.26-.684 2.055-2.054l-2.055-.84q-.486.818-1.215 1.215t-1.701.398q-.928 0-1.591-.398-.64-.398-.972-1.149a4.2 4.2 0 0 1-.301-1.237h7.901a1.3 1.3 0 0 0 .022-.287q.022-.2.022-.376 0-1.635-.618-2.784a4.13 4.13 0 0 0-1.724-1.79q-1.126-.618-2.739-.618t-2.806.663a4.54 4.54 0 0 0-1.856 1.834q-.64 1.192-.641 2.806 0 1.59.641 2.783m1.863-3.866h5.286a2.7 2.7 0 0 0-.322-1.149 2.24 2.24 0 0 0-.884-.928q-.553-.33-1.303-.331-.906 0-1.547.397-.64.399-.972 1.15a4 4 0 0 0-.258.861" clip-rule="evenodd"/><path fill="#7e7e7e" d="M140.326 20.12h2.386v17.232h-2.386zM148.127 42.213l6.628-15.024h-2.563l-2.635 6.606-2.667-6.606h-2.74l4.087 8.97-2.651 6.054z"/></svg>
